dist/assets/uwm-icons/icon_careers.svg

<?xml version="1.0" encoding="UTF-8"?>
<svg width="24px" height="24px" viewBox="0 0 24 24" version="1.1" xmlns="http://www.w3.org/2000/svg" xmlns:xlink="http://www.w3.org/1999/xlink">
    <!-- Generator: Sketch 48.2 (47327) - http://www.bohemiancoding.com/sketch -->
    <title>icon_careers</title>
    <desc>Created with Sketch.</desc>
    <defs></defs>
    <g id="Icons" stroke="none" stroke-width="1" fill="none" fill-rule="evenodd">
        <g id="icon_careers">
            <rect id="Rectangle" fill="#FFFFFF" x="0" y="0" width="24" height="24"></rect>
            <path d="M20.0857679,18.7080808 C20.0857679,19.4578216 19.4876758,20.0677205 18.7524488,20.0677205 L5.24716703,20.0677205 C4.51194008,20.0677205 3.91384793,19.4578216 3.91384793,18.7080808 L3.91384793,9.67828752 C3.91384793,9.0331344 4.35828763,8.4937441 4.95061781,8.35507731 L4.95061781,13.7908938 C4.95061781,14.7549022 5.72041657,15.5398972 6.66537912,15.5398972 L8.10010884,15.5398972 L8.10010884,16.4286965 C8.10010884,16.6864444 8.30446659,16.8948363 8.55684073,16.8948363 C8.80998314,16.8948363 9.0143409,16.6864444 9.0143409,16.4286965 L9.0143409,15.5398972 L14.9856591,15.5398972 L14.9856591,16.4286965 C14.9856591,16.6864444 15.190401,16.8948363 15.4427751,16.8948363 C15.6955334,16.8948363 15.9002753,16.6864444 15.9002753,16.4286965 L15.9002753,15.5398972 L17.3342368,15.5398972 C18.2799676,15.5398972 19.0493822,14.7549022 19.0493822,13.7908938 L19.0493822,8.35546902 C19.6417124,8.4937441 20.0857679,9.0331344 20.0857679,9.67828752 L20.0857679,18.7080808 Z M8.51420218,6.55906818 C8.51420218,5.6620429 9.12689131,4.93227955 9.87940417,4.93227955 L14.1205958,4.93227955 C14.8734928,4.93227955 15.4854137,5.6620429 15.4854137,6.55906818 L15.4854137,7.38636835 L8.51420218,7.38636835 L8.51420218,6.55906818 Z M15.4427751,13.1813867 C15.190401,13.1813867 14.9856591,13.3897786 14.9856591,13.6475264 L14.9856591,14.6076177 L9.0143409,14.6076177 L9.0143409,13.6475264 C9.0143409,13.3897786 8.80998314,13.1813867 8.55684073,13.1813867 C8.30446659,13.1813867 8.10010884,13.3897786 8.10010884,13.6475264 L8.10010884,14.6076177 L6.66537912,14.6076177 C6.22401246,14.6076177 5.86484987,14.2409733 5.86484987,13.7908938 L5.86484987,8.3186479 L18.1351501,8.3186479 L18.1351501,13.7908938 C18.1351501,14.2409733 17.7756034,14.6076177 17.3342368,14.6076177 L15.9002753,14.6076177 L15.9002753,13.6475264 C15.9002753,13.3897786 15.6955334,13.1813867 15.4427751,13.1813867 Z M18.7524488,7.38636835 L16.3996457,7.38636835 L16.3996457,6.55906818 C16.3996457,5.14811401 15.3770887,4 14.1205958,4 L9.87940417,4 C8.62252716,4 7.59997012,5.14811401 7.59997012,6.55906818 L7.59997012,7.38636835 L5.24716703,7.38636835 C4.00834418,7.38636835 3,8.41461785 3,9.67828752 L3,18.7080808 C3,19.9717505 4.00834418,21 5.24716703,21 L18.7524488,21 C19.9916558,21 21,19.9717505 21,18.7080808 L21,9.67828752 C21,8.41461785 19.9916558,7.38636835 18.7524488,7.38636835 Z" id="Fill-43" fill="#000000"></path>
        </g>
    </g>
</svg>

<svg width="24" height="24" xmlns="http://www.w3.org/2000/svg"><g fill="none" fill-rule="evenodd"><path fill="#FFF" d="M0 0h24v24H0z"/><path d="M20.086 18.708c0 .75-.598 1.36-1.334 1.36H5.247c-.735 0-1.333-.61-1.333-1.36v-9.03c0-.645.444-1.184 1.037-1.323v5.436c0 .964.77 1.749 1.714 1.749H8.1v.889c0 .257.204.466.457.466a.461.461 0 0 0 .457-.466v-.89h5.972v.89c0 .257.204.466.457.466a.462.462 0 0 0 .457-.466v-.89h1.434c.946 0 1.715-.784 1.715-1.748V8.355a1.354 1.354 0 0 1 1.037 1.323v9.03zM8.514 6.56c0-.897.613-1.627 1.365-1.627h4.242c.752 0 1.364.73 1.364 1.627v.827h-6.97V6.56zm6.929 6.622a.462.462 0 0 0-.457.467v.96H9.014v-.96a.461.461 0 0 0-.457-.467.461.461 0 0 0-.457.467v.96H6.665a.81.81 0 0 1-.8-.817V8.319h12.27v5.472a.81.81 0 0 1-.8.817H15.9v-.96a.462.462 0 0 0-.457-.467zm3.31-5.795H16.4V6.56C16.4 5.15 15.377 4 14.12 4H9.88C8.622 4 7.6 5.148 7.6 6.56v.826H5.247C4.008 7.386 3 8.415 3 9.678v9.03C3 19.972 4.008 21 5.247 21h13.505C19.992 21 21 19.972 21 18.708v-9.03c0-1.263-1.008-2.292-2.248-2.292z" fill="#000"/></g></svg>
